X:1
T:Title
%%score { ( 1 2 ) | ( 3 4 ) }
L:1/8
Q:1/4=112
M:4/4
K:D
V:1 treble nm="Grand Piano"
V:2 treble 
V:3 bass 
V:4 bass 
V:1
 F>F E2 F>F E>D | [CA]4 [DF]4 | A2 A>B A2 z2 | [G,CE]4 [CA]4 | B2 z2 G2 z2 | [DA]4 [F,DF]4 | %6
w: ????~???? * * * * * *||||||
 E2 z2 F2 z2 | [A,-D]6 A,2 | [F,DF]4 F2 z2 | [C-E]6 C2 | z4 G2 z2 | [D-F]6 D2 | A>B B>B [DB]4 | %13
w: |||||||
[M:5/4] c2 B>A [DA]6 |[M:4/4] D4 z4 | z2 [DG]2 A>G F2 | [CE]2 [A,D]6 |] %17
w: ||||
V:2
 D3- D/D/- D3- D/ z/ | x8 | D4 D4 | x8 | D4 [G,D]4 | x8 | [G,C]4 [G,C]4 | F,4 F,4 | z4 [G,D]4 | %9
 G,4 G,4 | [G,CG]4 [G,C]4 | F,4 F,4 | D4 z4 |[M:5/4] D4 z2 z4 |[M:4/4] A2 z2 [G,CE]2 [G,CE]2 | %15
 z4 C2 z2 | x8 |] %17
V:3
 [A,,F,]4 B,,4 | [A,,G,]4 [A,,F,]4 | [A,,F,]4 z2 F2 | A,,4 [A,,G,]4 | z2[K:treble] B2 z2 B2 | %5
 [A,,F,]4 A,,4 | z2[K:treble] A>G[K:bass] z2 E2 | A,,4 z z/[K:treble] F/ F>F | A,,4 z2 E>^D | %9
 A,,4 z z/[K:treble] G/ G>G | A,,4 z2[K:treble] F>=F | A,,4 z z/[K:treble] A/ A>A | %12
 [A,,F,]4 [G,,G,]4 |[M:5/4] [G,,D,G,]4 [A,,F,]6 |[M:4/4] z z/[K:treble] G/ F2[K:bass] A,,2 A,,2 | %15
 F2 [A,,F,]2 [A,,G,]4 | [A,,G,]2 [A,,F,]6 |] %17
V:4
 x8 | x8 | z4 [A,,F,]4 | x8 | [G,,D,G,]4[K:treble] B,,4 | x8 | A,,4[K:treble][K:bass] A,,4 | %7
 z4 A,,4[K:treble] | z4 A,,4 | z4 A,,4[K:treble] | z4 A,,4[K:treble] | z4 A,,4[K:treble] | x8 | %13
[M:5/4] x10 |[M:4/4] [A,,D,F,]4[K:treble][K:bass] z4 | x8 | x8 |] %17

